src/22x22/places/folder-gruvbox-original-aqua-git.svg

<?xml version="1.0" encoding="UTF-8"?>
<svg width="22" height="22" version="1" xmlns="http://www.w3.org/2000/svg">
 <rect x="1" y="8.5" width="20" height="12" rx="1" ry="1" opacity=".2"/>
 <path d="m1 16c0 0.554 0.446 1 1 1h18c0.554 0 1-0.446 1-1v-11c0-0.554-0.446-1-1-1h-9c-1.5 0-2-2-3.5-2h-5.5c-0.554 0-1 0.446-1 1" fill="#427b58"/>
 <rect x="1" y="7.5" width="20" height="12" rx="1" ry="1" opacity=".2"/>
 <rect x="3" y="6" width="16" height="8" rx="1" ry="1" fill="#D5D7B3"/>
 <rect x="1" y="8" width="20" height="12" rx="1" ry="1" fill="#8ec07c"/>
 <path d="m2 2c-0.554 0-1 0.446-1 1v0.5c0-0.554 0.446-1 1-1h5.5c1.5 0 2 2 3.5 2h9c0.554 0 1 0.446 1 1v-0.5c0-0.554-0.446-1-1-1h-9c-1.5 0-2-2-3.5-2z" fill="#D5D7B3" opacity=".1"/>
 <path d="m7.7165 9.361-0.3555 0.3554 0.9551 0.9556a1.5 1.5 0 0 0-0.2774 0.867 1.5 1.5 0 0 0 1.25 1.479v2.043a1.5 1.5 0 0 0-1.25 1.478 1.5 1.5 0 0 0 1.5 1.5 1.5 1.5 0 0 0 1.5003-1.5 1.5 1.5 0 0 0-1.2503-1.478v-2.043a1.5 1.5 0 0 0 0.6173-0.256l0.91 0.91a1.5 1.5 0 0 0-0.277 0.868 1.5 1.5 0 0 0 1.5 1.5 1.5 1.5 0 0 0 1.5-1.5 1.5 1.5 0 0 0-1.5-1.5 1.5 1.5 0 0 0-0.867 0.277l-0.911-0.91a1.5 1.5 0 0 0 0.278-0.867 1.5 1.5 0 0 0-1.5004-1.5 1.5 1.5 0 0 0-0.8672 0.277l-0.955-0.9549z" fill="#313D38"/>
</svg>

<svg xmlns="http://www.w3.org/2000/svg" width="22" height="22" version="1">
 <rect style="opacity:0.2" width="20" height="12" x="1" y="8.5" rx="1" ry="1"/>
 <path style="fill:#427b58" d="M 1,16 C 1,16.554 1.446,17 2,17 H 20 C 20.554,17 21,16.554 21,16 V 5 C 21,4.446 20.554,4 20,4 H 11 C 9.5,4 9,2 7.5,2 H 2 C 1.446,2 1,2.446 1,3"/>
 <rect style="opacity:0.2" width="20" height="12" x="1" y="7.5" rx="1" ry="1"/>
 <rect style="fill:#D5D7B3" width="16" height="8" x="3" y="6" rx="1" ry="1"/>
 <rect style="fill:#8ec07c" width="20" height="12" x="1" y="8" rx="1" ry="1"/>
 <path style="opacity:0.1;fill:#D5D7B3" d="M 2,2 C 1.446,2 1,2.446 1,3 V 3.5 C 1,2.946 1.446,2.5 2,2.5 H 7.5 C 9,2.5 9.5,4.5 11,4.5 H 20 C 20.554,4.5 21,4.946 21,5.5 V 5 C 21,4.446 20.554,4 20,4 H 11 C 9.5,4 9,2 7.5,2 Z"/>
 <path style="fill:#313D38" d="M 7.7165,9.361 7.361,9.7164 8.3161,10.672 A 1.5,1.5 0 0 0 8.0387,11.539 1.5,1.5 0 0 0 9.2887,13.018 V 15.061 A 1.5,1.5 0 0 0 8.0387,16.539 1.5,1.5 0 0 0 9.5387,18.039 1.5,1.5 0 0 0 11.039,16.539 1.5,1.5 0 0 0 9.7887,15.061 V 13.018 A 1.5,1.5 0 0 0 10.406,12.762 L 11.316,13.672 A 1.5,1.5 0 0 0 11.039,14.54 1.5,1.5 0 0 0 12.539,16.04 1.5,1.5 0 0 0 14.039,14.54 1.5,1.5 0 0 0 12.539,13.04 1.5,1.5 0 0 0 11.672,13.317 L 10.761,12.407 A 1.5,1.5 0 0 0 11.039,11.54 1.5,1.5 0 0 0 9.5386,10.04 1.5,1.5 0 0 0 8.6714,10.317 L 7.7164,9.3621 Z"/>
</svg>
